svg/crypto/binance_USD_BUSD_fill.svg

<?xml version="1.0" encoding="UTF-8"?>
<svg width="24px" height="24px" viewBox="0 0 24 24" version="1.1" xmlns="http://www.w3.org/2000/svg" xmlns:xlink="http://www.w3.org/1999/xlink">
    <title>binance_USD_BUSD_fill</title>
    <g id="页面-1" stroke="none" stroke-width="1" fill="none" fill-rule="evenodd">
        <g id="Business" transform="translate(-144.000000, -432.000000)" fill-rule="nonzero">
            <g id="binance_USD_BUSD_fill" transform="translate(144.000000, 432.000000)">
                <path d="M24,0 L24,24 L0,24 L0,0 L24,0 Z M12.5934901,23.257841 L12.5819402,23.2595131 L12.5108777,23.2950439 L12.4918791,23.2987469 L12.4918791,23.2987469 L12.4767152,23.2950439 L12.4056548,23.2595131 C12.3958229,23.2563662 12.3870493,23.2590235 12.3821421,23.2649074 L12.3780323,23.275831 L12.360941,23.7031097 L12.3658947,23.7234994 L12.3769048,23.7357139 L12.4804777,23.8096931 L12.4953491,23.8136134 L12.4953491,23.8136134 L12.5071152,23.8096931 L12.6106902,23.7357139 L12.6232938,23.7196733 L12.6232938,23.7196733 L12.6266527,23.7031097 L12.609561,23.275831 C12.6075724,23.2657013 12.6010112,23.2592993 12.5934901,23.257841 L12.5934901,23.257841 Z M12.8583906,23.1452862 L12.8445485,23.1473072 L12.6598443,23.2396597 L12.6498822,23.2499052 L12.6498822,23.2499052 L12.6471943,23.2611114 L12.6650943,23.6906389 L12.6699349,23.7034178 L12.6699349,23.7034178 L12.678386,23.7104931 L12.8793402,23.8032389 C12.8914285,23.8068999 12.9022333,23.8029875 12.9078286,23.7952264 L12.9118235,23.7811639 L12.8776777,23.1665331 C12.8752882,23.1545897 12.8674102,23.1470016 12.8583906,23.1452862 L12.8583906,23.1452862 Z M12.1430473,23.1473072 C12.1332178,23.1423925 12.1221763,23.1452606 12.1156365,23.1525954 L12.1099173,23.1665331 L12.0757714,23.7811639 C12.0751323,23.7926639 12.0828099,23.8018602 12.0926481,23.8045676 L12.108256,23.8032389 L12.3092106,23.7104931 L12.3186497,23.7024347 L12.3186497,23.7024347 L12.3225043,23.6906389 L12.340401,23.2611114 L12.337245,23.2485176 L12.337245,23.2485176 L12.3277531,23.2396597 L12.1430473,23.1473072 Z" id="MingCute" fill-rule="nonzero"></path>
                <path d="M19.9210403,9.75014519 L19.9903,9.808 L21.8287,11.6465 C22.0023,11.8200111 22.0215889,12.0894432 21.8865667,12.2843403 L21.8287,12.3536 L12.3534,21.8288 C12.1798889,22.0024 11.9104568,22.0216889 11.7155597,21.8866667 L11.6463,21.8288 L9.80787,19.9904 C9.63430556,19.8168 9.61502062,19.547358 9.75001519,19.35253 L9.80787,19.2833 L19.2832,9.808 C19.4350222,9.65613111 19.660284,9.62238247 19.844793,9.70675407 L19.9210403,9.75014519 Z M16.1718,5.98974 L18.0103,7.82822 C18.2056,8.02348 18.2056,8.34006 18.0103,8.53533 L8.53508,18.0106 C8.33982,18.2058 8.02324,18.2058 7.82798,18.0106 L5.9895,16.1721 C5.79424,15.9768 5.79424,15.6602 5.9895,15.465 L15.4647,5.98974 C15.66,5.79448 15.9766,5.79448 16.1718,5.98974 Z M4.00956,9.80805 C4.18313333,9.63448556 4.45255654,9.61520062 4.64742283,9.75019519 L4.71667,9.80805 L6.55515,11.6465 C6.72871444,11.8201 6.74799938,12.089542 6.61300481,12.28437 L6.55515,12.3536 L4.71669,14.1921 C4.54312556,14.3657 4.27369543,14.3849889 4.0788275,14.2499667 L4.00958,14.1921 L2.1711,12.3536 C1.99753556,12.1800889 1.97825062,11.9106568 2.11324519,11.7157597 L2.1711,11.6465 L4.00956,9.80805 Z M12.28417,2.11349519 L12.3534,2.17135 L14.1919,4.00983 C14.3655,4.18339444 14.3847889,4.45281667 14.2497667,4.64768284 L14.1919,4.71693 L8.53507,10.3738 C8.36149667,10.5473111 8.09207346,10.5665901 7.89720717,10.431637 L7.82796,10.3738 L5.98948,8.53531 C5.81591556,8.36174556 5.79663062,8.09232333 5.93162519,7.89745014 L5.98948,7.8282 L11.6463,2.17135 C11.7982,2.01948111 12.023479,1.98573247 12.2079449,2.07010407 L12.28417,2.11349519 Z" id="形状" fill="#09244B"></path>
            </g>
        </g>
    </g>
</svg>

<svg xmlns="http://www.w3.org/2000/svg" width="24" height="24"><g fill="none" fill-rule="nonzero"><path d="M24 0v24H0V0h24ZM12.593 23.258l-.011.002-.071.035-.02.004-.014-.004-.071-.035c-.01-.004-.019-.001-.024.005l-.004.01-.017.428.005.02.01.013.104.074.015.004.012-.004.104-.074.012-.016.004-.017-.017-.427c-.002-.01-.009-.017-.017-.018Zm.265-.113-.013.002-.185.093-.01.01-.003.011.018.43.005.012.008.007.201.093c.012.004.023 0 .029-.008l.004-.014-.034-.614c-.003-.012-.01-.02-.02-.022Zm-.715.002a.023.023 0 0 0-.027.006l-.006.014-.034.614c0 .012.007.02.017.024l.015-.002.201-.093.01-.008.004-.011.017-.43-.003-.012-.01-.01-.184-.092Z"/><path fill="#09244B" d="m19.921 9.75.07.058 1.838 1.838a.5.5 0 0 1 .058.638l-.058.07-9.476 9.475a.5.5 0 0 1-.637.058l-.07-.058-1.838-1.839a.5.5 0 0 1-.058-.637l.058-.07 9.475-9.475a.5.5 0 0 1 .562-.101l.076.043Zm-3.75-3.76 1.84 1.838a.5.5 0 0 1 0 .707l-9.476 9.476a.5.5 0 0 1-.707 0l-1.839-1.839a.5.5 0 0 1 0-.707l9.476-9.475a.5.5 0 0 1 .707 0ZM4.01 9.808a.5.5 0 0 1 .637-.058l.07.058 1.838 1.838a.5.5 0 0 1 .058.638l-.058.07-1.838 1.838a.5.5 0 0 1-.638.058l-.07-.058-1.838-1.838a.5.5 0 0 1-.058-.638l.058-.07L4.01 9.808Zm8.274-7.695.07.058 1.838 1.839a.5.5 0 0 1 .058.638l-.058.069-5.657 5.657a.5.5 0 0 1-.638.058l-.069-.058-1.839-1.839a.5.5 0 0 1-.057-.638l.057-.069 5.657-5.657a.5.5 0 0 1 .562-.1l.076.042Z"/></g></svg>
